X:1
T:Title
%%score { ( 1 2 3 ) | ( 4 5 ) }
L:1/8
Q:1/4=100
M:4/4
K:C
V:1 treble nm="Grand Piano"
V:2 treble 
V:3 treble 
V:4 bass 
V:5 bass 
V:1
 z2 (3z F^F [EG]2 [EG]2 | .[Ac]4 z4[K:bass] | [E,C]2[K:treble] [CFA]2 [CEG]3 [G,CE] | %3
 [G,C]2 [G,CE]2 [G,B,D]4 | G,2 (3z F^F [EG]2 [EG]2 | .[Ge]4 z4 | [EG]2 [EG]2 [Ec]3 [G,CE] | %7
 z2 (3z FD C4 | G2- (3GAB [Ec]2 [EG]2 | (3[Ge-][Ge-][Ge-] e2 [Ac]2 [FA]2 | %10
 [EG]2 [EG]2 [Ec]3[K:bass] [G,CE] | [G,C]2 [G,CE]2 [G,B,D]4 | G,2 (3z[K:treble] F^F [EG]2 [EG]2 | %13
 .[Ge]4 z4 | [EG]2 [EG]2 [Ec]3 [G,CE] | z2 (3z FD C4 |] %16
V:2
 .[CE]4 z4 | z2 (3z BA [CEG]2[K:bass] [G,CE]2 | x2[K:treble] x6 | x8 | .[CE]4 z4 | %5
 z2 (3z d[Gc] [Ac]2 [FA]2 | x8 | .[G,EG]4 z4 | x8 | z2 (3G[Gd][Gc] z4 | x7[K:bass] x | x8 | %12
 .[CE]4[K:treble] z4 | z2 (3Cd[Gc] [Ad]2 [FA]2 | x8 | .[G,EG]4 z4 |] %16
V:3
 z2 G,2 z4 | z2 C2 z4[K:bass] | x2[K:treble] x6 | x8 | z2 G,2 z4 | x8 | x8 | x8 | x8 | x8 | %10
 x7[K:bass] x | x8 | z2 G,2[K:treble] z4 | x8 | x8 | x8 |] %16
V:4
 [C,G,]2 (3z D_E [C,C]2 [C,C]2 | [C,C]2 (3z[K:treble] GF[K:bass] C,2 C,2 | C,2 C,2 C,3 C, | %3
 E,2 C,2 G,,2- (3G,,A,,B,, | C,2 (3z D_E [C,C]2 [C,C]2 | [C,C]2- (3[C,C][D,B,][E,C] [F,C]2 [F,C]2 | %6
 [C,C]2 [C,C]2 [C,G,]3 C, | G,,2 (3z D[F,B,] [C,E,]4 | %8
 G,2 (3z[K:treble] ^F=F[K:bass] [C,G,]2 [C,C]2 | %9
 (3[C,C][C,C][C,C] (3[C,C][D,B,][E,C] [F,C]2 [F,C]2 | [C,C]2 [C,C]2 [C,G,]3 C, | %11
 E,2 C,2 G,,2- (3G,,A,,B,, | C,2 (3z D_E [C,C]2 [C,C]2 | [C,C]2 (3C,[D,B,][E,C] [F,C]2 [F,C]2 | %14
 [C,C]2 [C,C]2 [C,G,]3 C, | G,,2 (3z D[F,B,] [C,E,]4 |] %16
V:5
 z2 C,2 z4 | z2 C,2[K:treble][K:bass] z4 | x8 | x8 | z2 C,2 z4 | x8 | x8 | z2 G,,2 z4 | %8
 z2 G,2[K:treble][K:bass] z4 | x8 | x8 | x8 | z2 C,2 z4 | x8 | x8 | z2 G,,2 z4 |] %16

